svgs/kuper.svg

<svg width="192" height="192" viewBox="0 0 192 192" fill="none" xmlns="http://www.w3.org/2000/svg">
<path d="M37.3093 74.2857H37.3692M37.3692 74.2857C28.881 74.2857 22 80.9374 22 89.143C22 97.3483 28.8211 104.108 37.3093 104.108H53.5516C59.9724 104.108 63.5457 112.292 59.5406 117.344L47.1594 132.957L36.4284 146.204C31.9549 151.727 35.8595 160 42.9396 160H57.633C60.6622 160 63.5471 158.697 65.5607 156.42L70.1877 151.187L86.9289 132.359L87.9494 131.163C90.0667 128.683 93.0332 127.443 95.9995 127.443C98.9659 127.443 101.933 128.683 104.051 131.163L105.071 132.359L121.812 151.187L126.439 156.42C128.453 158.697 131.338 160 134.367 160H149.06C156.14 160 160.045 151.727 155.572 146.204L144.841 132.957L132.459 117.344C128.454 112.292 132.028 104.108 138.448 104.108H154.691C163.179 104.108 170 97.3483 170 89.143C170 80.9374 163.119 74.2857 154.631 74.2857M37.3692 74.2857H154.631M154.691 74.2857H154.631M96.9973 74.2857C108.629 74.2857 117.631 65.0349 117.631 53.2815C117.631 41.528 108.201 32 96.569 32C84.9371 32 75.5077 41.528 75.5077 53.2815C75.5077 65.0349 85.3656 74.2857 96.9973 74.2857Z" stroke="black" stroke-width="12" stroke-linejoin="round"/>
</svg>

<svg xmlns="http://www.w3.org/2000/svg" width="192" height="192" fill="none"><path stroke="#000" stroke-linejoin="round" stroke-width="12" d="M37.31 74.286h.06m0 0C28.88 74.286 22 80.937 22 89.143s6.821 14.965 15.31 14.965h16.242c6.42 0 9.994 8.184 5.989 13.236l-12.382 15.613-10.73 13.247c-4.474 5.523-.57 13.796 6.51 13.796h14.694c3.03 0 5.914-1.303 7.928-3.58l4.627-5.233 16.74-18.828 1.021-1.196a10.54 10.54 0 0 1 8.05-3.72c2.967 0 5.934 1.24 8.052 3.72l1.02 1.196 16.741 18.828 4.627 5.233a10.59 10.59 0 0 0 7.928 3.58h14.693c7.08 0 10.985-8.273 6.512-13.796l-10.731-13.247-12.382-15.613c-4.005-5.052-.431-13.236 5.989-13.236h16.243c8.488 0 15.309-6.76 15.309-14.965s-6.881-14.857-15.369-14.857m-117.262 0h117.262m.06 0h-.06m-57.634 0c11.632 0 20.634-9.251 20.634-21.004S108.201 32 96.569 32s-21.061 9.528-21.061 21.282 9.858 21.004 21.49 21.004Z"/></svg>
